X:1
T:P6 No.11
T:大提琴练习曲_Book1_P6_No.11 
%%score 1 2
L:1/8
M:2/4
K:F
V:1 bass nm="Piano" snm="Pno."
V:2 bass nm="大提琴" snm="Vc."
V:1
 z4 |[Q:1/4=60]"^\n" C,,2 C,,2 | z2 z A,, | D,2 E, F, | F,2 E, D, | ^C,2 =B,, C, | D,2 z =C, | %7
 F,2 G, A, | A,2 G, F, | E,2 D,2 | ^C,2 z A,, | D,2 E, F, | F,2 E, D, | ^C,2 =B,, C, | D,2 z A,, | %15
 F,2 G, A, | C2 B, G, | F,2 E,2 | D,2 z D, | A,2 D C | B,2 A, G, | ^F,2 E, F, | G, D, B,, G,, | %23
 ^F,, D,, E,, F,, | G,, D, B,, D, | ^G,, =B,, G,, B,, | A,, E, A, A,, | D,2 E, F, | F,2 E, D, | %29
 ^C,2 =B,, C, | D,2 z A,, | F,2 G, A, | C2 B, G, | F,2 E,2 | D,3 z |] %35
V:2
 z4 | C,,2 C,,2 | z2 z A,, | D,2 E,F, | F,2 E,D, | ^C,2 =B,,C, | D,2 z =C, | F,2 G,A, | A,2 G,F, | %9
 E,2 D,2 | ^C,2 z A,, | D,2 E,F, | F,2 E,D, | ^C,2 =B,,C, | D,2 z A,, | F,2 G,A, | C2 B,G, | %17
 F,2 E,2 | D,2 z D, | A,2 DC | B,2 A,G, | ^F,2 E,F, | G,D, B,,G,, | ^F,,D,, E,,F,, | G,,D, B,,D, | %25
 ^G,,=B,, G,,B,, | A,,E, A,A,, | D,2 E,F, | F,2 E,D, | ^C,2 =B,,C, | D,2 z A,, | F,2 G,A, | %32
 C2 B,G, | F,2 E,2 | D,3 z |] %35

